src/assets/outline/Award.svg

<svg width="24" height="24" viewBox="0 0 24 24"  xmlns="http://www.w3.org/2000/svg">
<path d="M11.9998 22.7501C11.3998 22.7501 10.8098 22.6101 10.3298 22.3401L5.59977 19.6101C3.63977 18.2901 3.50977 18.0501 3.50977 15.9801V11.0201C3.50977 8.95006 3.63977 8.71006 5.55977 7.42006L10.3398 4.66006C11.2898 4.11006 12.7198 4.11006 13.6698 4.66006L18.3998 7.39006C20.3598 8.71006 20.4898 8.95006 20.4898 11.0201V15.9801C20.4898 18.0501 20.3598 18.2901 18.4398 19.5801L13.6598 22.3401C13.1898 22.6201 12.5898 22.7501 11.9998 22.7501ZM11.9998 5.75006C11.6598 5.75006 11.3198 5.82006 11.0798 5.96006L6.34977 8.69006C5.00977 9.60006 5.00977 9.60006 5.00977 11.0201V15.9801C5.00977 17.4001 5.00977 17.4001 6.39977 18.3401L11.0898 21.0401C11.5698 21.3201 12.4398 21.3201 12.9198 21.0401L17.6498 18.3101C18.9898 17.4001 18.9898 17.4001 18.9898 15.9801V11.0201C18.9898 9.60006 18.9898 9.60006 17.5998 8.66006L12.9098 5.96006C12.6798 5.82006 12.3398 5.75006 11.9998 5.75006Z" />
<path d="M17.5 8.38C17.09 8.38 16.75 8.04 16.75 7.63V5C16.75 3.42 16.08 2.75 14.5 2.75H9.5C7.92 2.75 7.25 3.42 7.25 5V7.56C7.25 7.97 6.91 8.31 6.5 8.31C6.09 8.31 5.75 7.98 5.75 7.56V5C5.75 2.58 7.08 1.25 9.5 1.25H14.5C16.92 1.25 18.25 2.58 18.25 5V7.63C18.25 8.04 17.91 8.38 17.5 8.38Z" />
<path d="M13.6302 17.6301C13.4202 17.6301 13.2002 17.5901 12.9802 17.5001L12.0002 17.1201L11.0202 17.5101C10.4902 17.7201 9.95024 17.6701 9.55024 17.3801C9.15024 17.0901 8.94024 16.5901 8.97024 16.0201L9.03024 14.9701L8.36024 14.1601C8.00024 13.7101 7.88024 13.1901 8.04024 12.7101C8.19024 12.2401 8.60024 11.8801 9.15024 11.7401L10.1702 11.4801L10.7402 10.5901C11.3502 9.63012 12.6602 9.63012 13.2702 10.5901L13.8402 11.4801L14.8602 11.7401C15.4102 11.8801 15.8202 12.2401 15.9702 12.7101C16.1202 13.1801 16.0002 13.7101 15.6402 14.1501L14.9702 14.9601L15.0302 16.0101C15.0602 16.5801 14.8502 17.0701 14.4502 17.3701C14.2102 17.5401 13.9302 17.6301 13.6302 17.6301ZM9.52024 13.2001L10.1902 14.0101C10.4202 14.2801 10.5502 14.7101 10.5302 15.0601L10.4702 16.1101L11.4502 15.7201C11.7802 15.5901 12.2202 15.5901 12.5502 15.7201L13.5302 16.1101L13.4702 15.0601C13.4502 14.7101 13.5802 14.2901 13.8102 14.0101L14.4802 13.2001L13.4602 12.9401C13.1202 12.8501 12.7602 12.5901 12.5702 12.3001L12.0102 11.4201L11.4402 12.3001C11.2502 12.6001 10.8902 12.8601 10.5502 12.9501L9.52024 13.2001Z" />
</svg>

<?xml version="1.0" encoding="UTF-8"?>
<svg width="24" height="24" viewBox="0 0 24 24" xmlns="http://www.w3.org/2000/svg">
 <path d="m12 22.75c-0.6 0-1.19-0.14-1.67-0.41l-4.73-2.73c-1.96-1.32-2.09-1.56-2.09-3.63v-4.96c0-2.07 0.13-2.31 2.05-3.6l4.78-2.76c0.95-0.55 2.38-0.55 3.33 0l4.73 2.73c1.96 1.32 2.09 1.56 2.09 3.63v4.96c0 2.07-0.13 2.31-2.05 3.6l-4.78 2.76c-0.47 0.28-1.07 0.41-1.66 0.41zm0-17c-0.34 0-0.68 0.07-0.92 0.21l-4.73 2.73c-1.34 0.91-1.34 0.91-1.34 2.33v4.96c0 1.42 0 1.42 1.39 2.36l4.69 2.7c0.48 0.28 1.35 0.28 1.83 0l4.73-2.73c1.34-0.91 1.34-0.91 1.34-2.33v-4.96c0-1.42 0-1.42-1.39-2.36l-4.69-2.7c-0.23-0.14-0.57-0.21-0.91-0.21z"/>
 <path d="m17.5 8.38c-0.41 0-0.75-0.34-0.75-0.75v-2.63c0-1.58-0.67-2.25-2.25-2.25h-5c-1.58 0-2.25 0.67-2.25 2.25v2.56c0 0.41-0.34 0.75-0.75 0.75s-0.75-0.33-0.75-0.75v-2.56c0-2.42 1.33-3.75 3.75-3.75h5c2.42 0 3.75 1.33 3.75 3.75v2.63c0 0.41-0.34 0.75-0.75 0.75z"/>
 <path d="m13.63 17.63c-0.21 0-0.43-0.04-0.65-0.13l-0.98-0.38-0.98 0.39c-0.53 0.21-1.07 0.16-1.47-0.13s-0.61-0.79-0.58-1.36l0.06-1.05-0.67-0.81c-0.36-0.45-0.48-0.97-0.32-1.45 0.15-0.47 0.56-0.83 1.11-0.97l1.02-0.26 0.57-0.89c0.61-0.95998 1.92-0.95998 2.53 0l0.57 0.89 1.02 0.26c0.55 0.14 0.96 0.5 1.11 0.97s0.03 1-0.33 1.44l-0.67 0.81 0.06 1.05c0.03 0.57-0.18 1.06-0.58 1.36-0.24 0.17-0.52 0.26-0.82 0.26zm-4.11-4.43 0.66996 0.81c0.23 0.27 0.36 0.7 0.34 1.05l-0.06 1.05 0.98-0.39c0.33-0.13 0.77-0.13 1.1 0l0.98 0.39-0.06-1.05c-0.02-0.35 0.11-0.77 0.34-1.05l0.67-0.81-1.02-0.26c-0.34-0.09-0.7-0.35-0.89-0.64l-0.56-0.88-0.57 0.88c-0.19 0.3-0.55 0.56-0.89 0.65l-1.03 0.25z"/>
</svg>
